X:252
T:score53
L:1/8
Q:1/4=96
M:3/8
I:linebreak $
K:A
 z3/2 A/A |[M:6/8] (AB)c c2 c | (cd)e e>ff | a>aa (ag)f |$ (!>!f3 e) z/A/A | (AB)c c2 c | %6
 (cd)e e>ff | a>aa (agf | c'ag f3) |] %9
